svg/fluentui-system-icons/ic_fluent_box_16_regular.svg

<svg width="16" height="16" viewBox="0 0 16 16" fill="none" xmlns="http://www.w3.org/2000/svg">
<path d="M6.92306 1.3777C7.61627 1.11108 8.38373 1.11108 9.07694 1.3777L14.0385 3.28598C14.6178 3.50878 15 4.06534 15 4.686V11.3124C15 11.9331 14.6178 12.4896 14.0385 12.7124L9.07694 14.6207C8.38373 14.8873 7.61627 14.8873 6.92306 14.6207L1.96153 12.7124C1.38224 12.4896 1 11.9331 1 11.3124V4.686C1 4.06534 1.38224 3.50878 1.96153 3.28598L6.92306 1.3777ZM8.71796 2.31104C8.25582 2.1333 7.74418 2.1333 7.28204 2.31104L5.89757 2.84353L11.4885 4.96009L13.4357 4.12558L8.71796 2.31104ZM14 4.97172L8.5 7.32886V13.7572C8.5736 13.7382 8.64637 13.7149 8.71796 13.6874L13.6795 11.7791C13.8726 11.7048 14 11.5193 14 11.3124V4.97172ZM7.5 13.7572V7.32886L2 4.97172V11.3124C2 11.5193 2.12741 11.7048 2.32051 11.7791L7.28204 13.6874C7.35363 13.7149 7.4264 13.7382 7.5 13.7572ZM2.56425 4.12558L8 6.45518L10.1638 5.52784L4.49652 3.3824L2.56425 4.12558Z" fill="#212121"/>
</svg>

<svg xmlns="http://www.w3.org/2000/svg" width="16" height="16"><path d="M6.923 1.378a3 3 0 0 1 2.154 0l4.962 1.908a1.5 1.5 0 0 1 .961 1.4v6.626a1.5 1.5 0 0 1-.961 1.4l-4.962 1.909a3 3 0 0 1-2.154 0l-4.961-1.909a1.5 1.5 0 0 1-.962-1.4V4.686a1.5 1.5 0 0 1 .962-1.4l4.961-1.908Zm1.795.933a2 2 0 0 0-1.436 0l-1.384.533 5.59 2.116 1.948-.834L8.718 2.31ZM14 4.971 8.5 7.33v6.428c.074-.019.146-.042.218-.07l4.962-1.908a.5.5 0 0 0 .32-.467v-6.34Zm-6.5 8.786V7.33L2 4.972v6.34a.5.5 0 0 0 .32.467l4.962 1.908c.072.028.144.051.218.07ZM2.564 4.126 8 6.456l2.164-.928-5.667-2.146-1.933.744Z"/></svg>
